X:10
T:Wolly and Georgey
T:Woolly and Georgey
T:John Malchair’s Third Collection of Tunes
%%VWML:Malchair-3619-p10
F:https://www.vwml.org/record/Malchair/3619/p10
F:www.vwml.org/topics/historic-dance-and-tune-books/Malchair
Z:Ian Hayden Jan 2020
M:3/4
L:1/8
K:G
G2(G/A/B) (AG)|cA (A/B/c) BA|B>A G>A B>c|(d3e)D2|
G2(G/A/B) (d/B/) (A/G/)|A2cd e>f|ge (d/e/d/B/) AG|G3AB2|]
|c>d ed gd|B>c dB ed|G>A Bc dG|F2A2A2|
D3E DB,|G3E DB,|d3B AF|G3AB2|]
W:
T:Bloomsbury Market
T:John Malchair’s Third Collection of Tunes
F:https://www.vwml.org/record/Malchair/3619/p10
F:www.vwml.org/topics/historic-dance-and-tune-books/Malchair
%%VWML:Malchair-3619-p10
Z:Ian Hayden Jan 2020
M:C|
L:1/8
K:G
d2 (dB)(AG) (GE)|(DE) (DB,) D3D|(DG) (GA) B2 (Bc)|d2 (cB) A3B|
(cd) (e=f) (e^f) (gB)|(Bc) (dB) (AF) E2|e3d (ef) (gB)|(cB) (AG) G4|]
g2 (ga/b/) g3d|(ef) (gB) A3G|(DG) (GA) B2 (AG)|(DG) (GA) B2 (AG)|
d3e (de) (dB)|(AB) (cd) e3d|e3d (ef) (gB)|(cB) (AG) G4|]


